rospo-dark/16x16/panel/dino-status-online.svg

<svg height="22" width="22" xmlns="http://www.w3.org/2000/svg"><path d="m11 3a8 8 0 0 0 -8 8 8 8 0 0 0 8 8 8 8 0 0 0 8-8 8 8 0 0 0 -8-8zm1.984375 1.9355469a1.0001 1.0001 0 0 1 1.015625 1.0136719v3.9101562a1.0001 1.0001 0 0 1 0 .326172v3.796875a1.0001 1.0001 0 0 1 0 .017578v.986328a1.0001 1.0001 0 1 1 -2 .013672h-3l-1-1v-3.982422l1-.9999999h3v-3.0683593a1.0001 1.0001 0 0 1  .984375-1.0136719zm-2.984375 6.0820311v1.982422h2v-1.982422z" fill="#d3dae3"/></svg>

<svg xmlns="http://www.w3.org/2000/svg" width="22" height="22" version="1.1">
 <defs>
  <style id="current-color-scheme" type="text/css">
   .ColorScheme-Text { color:#d3dae3; } .ColorScheme-Highlight { color:#5294e2; }
  </style>
 </defs>
 <path style="fill:currentColor" class="ColorScheme-Text" d="M 11 3 A 8 8 0 0 0 3 11 A 8 8 0 0 0 11 19 A 8 8 0 0 0 19 11 A 8 8 0 0 0 11 3 z M 12.984375 4.9355469 A 1.0001 1.0001 0 0 1 14 5.9492188 L 14 9.859375 A 1.0001 1.0001 0 0 1 14 10.185547 L 14 13.982422 A 1.0001 1.0001 0 0 1 14 14 L 14 14.986328 A 1.0001 1.0001 0 1 1 12 15 L 9 15 L 8 14 L 8 10.017578 L 9 9.0175781 L 12 9.0175781 L 12 5.9492188 A 1.0001 1.0001 0 0 1 12.984375 4.9355469 z M 10 11.017578 L 10 13 L 12 13 L 12 11.017578 L 10 11.017578 z"/>
</svg>
